src/epub/images/titlepage.svg

<?xml version="1.0" encoding="utf-8"?>
<svg xmlns="http://www.w3.org/2000/svg" xmlns:svg="http://www.w3.org/2000/svg" version="1.1" viewBox="0 0 1400 340">
	<title>The titlepage for the Standard Ebooks edition of Moby Dick, by Herman Melville</title>
	<g aria-label="MOBY DICK">
		<path d="m 467.53728,130 h 17.59064 L 478.20394,52.807016 H 459.49049 L 442.36769,97.345029 425.24488,52.807016 H 406.53143 L 399.60745,130 h 17.59064 l 3.64913,-45.754387 h 0.46783 l 15.81287,45.286547 h 10.47953 l 15.81287,-45.286547 h 0.46783 z"/>
		<path d="m 493.71272,91.356724 c 0,22.549706 16.09356,40.046786 38.92397,40.046786 22.17544,0 38.83041,-17.49708 38.83041,-40.046786 0,-22.549708 -17.40351,-39.953217 -38.83041,-39.953217 -21.23976,0 -38.92397,17.403509 -38.92397,39.953217 z m 18.99415,0 c 0,-11.508772 6.36257,-23.017544 19.92982,-23.017544 13.66082,0 19.83626,11.508772 19.83626,23.017544 0,11.508776 -5.80117,23.017546 -19.83626,23.017546 -14.40935,0 -19.92982,-11.50877 -19.92982,-23.017546 z"/>
		<path d="M 584.2288,52.807016 V 130 h 29.28656 c 16,0 25.26315,-8.79532 25.26315,-21.52047 0,-12.444443 -6.83041,-17.777776 -16.46783,-19.461987 6.5497,-3.368421 9.63742,-9.450292 9.63742,-16.561404 0,-14.690058 -10.47953,-19.649123 -23.76608,-19.649123 z m 17.59065,30.222223 V 66.374268 h 1.40351 c 7.67251,0 11.6959,2.339181 11.6959,7.859649 0,6.456141 -4.11696,8.795322 -11.6959,8.795322 z m 0,33.403511 V 98.187134 h 5.52047 c 8.32748,0 12.91228,2.526316 12.91228,9.637426 0,6.08187 -4.5848,8.60819 -12.91228,8.60819 z"/>
		<path d="m 640.38377,52.807016 28.44445,42.5731 V 130 h 17.59064 V 95.380116 l 28.44444,-42.5731 H 693.71711 L 677.62354,77.508771 661.52997,52.807016 Z"/>
		<path d="M 753.28581,52.807016 V 130 h 22.36258 c 21.23976,0 38.92397,-16.09357 38.92397,-38.643276 0,-22.45614 -17.77778,-38.549708 -38.92397,-38.549708 z M 770.87646,114.2807 V 68.526315 h 2.71345 c 13.09941,0 21.9883,10.011696 21.9883,22.923977 -0.0936,12.912278 -8.98246,22.830408 -21.9883,22.830408 z"/>
		<path d="M 844.9554,52.807016 H 827.36476 V 130 h 17.59064 z"/>
		<path d="m 899.39107,114.09357 c -17.68421,0 -25.45029,-12.35088 -25.45029,-22.736846 0,-10.292397 7.76608,-22.643275 25.45029,-22.643275 8.98246,0 15.1579,4.77193 15.1579,4.77193 l 7.48538,-14.97076 c 0,0 -8.60819,-7.111112 -25.35673,-7.111112 -21.89474,0 -41.82456,17.964913 -41.82456,40.140352 0,22.081871 20.02339,39.859651 41.82456,39.859651 16.74854,0 25.35673,-7.11111 25.35673,-7.11111 l -7.48538,-14.97076 c 0,0 -6.17544,4.77193 -15.1579,4.77193 z"/>
		<path d="M 1004.125,130 968.19518,89.391812 999.25951,52.807016 H 977.92618 L 951.44665,84.33918 V 52.807016 H 933.856 V 130 h 17.59065 V 97.251461 L 979.89109,130 Z"/>
	</g>
	<g aria-label="HERMAN MELVILLE">
		<path d="m 339.33882,266.77193 h 18.66667 V 290 h 13.19298 v -57.89474 h -13.19298 v 23.08772 H 339.33882 V 232.10526 H 326.14584 V 290 h 13.19298 z"/>
		<path d="M 417.72259,232.10526 H 384.59978 V 290 h 33.12281 v -11.57895 h -19.92983 v -11.64912 h 19.08772 v -11.57895 h -19.08772 v -11.50877 h 19.92983 z"/>
		<path d="M 430.30702,232.10526 V 290 H 443.5 V 267.12281 L 461.18421,290 h 16.77193 l -19.92983,-23.92982 c 7.08772,-2.24562 11.85965,-8.07018 11.85965,-16.77193 0,-11.36842 -8.14035,-17.19299 -18.87719,-17.19299 z M 443.5,257.78947 v -15.15789 h 1.54386 c 4.98245,0 10.94737,0.35088 10.94737,7.57895 0,7.22807 -5.96492,7.57894 -10.94737,7.57894 z"/>
		<path d="m 533.46819,290 h 13.19299 l -5.19299,-57.89474 H 527.43311 L 514.591,265.50877 501.74889,232.10526 H 487.71381 L 482.52082,290 h 13.19299 l 2.73684,-34.31579 h 0.35088 l 11.85965,33.96491 h 7.85964 l 11.85965,-33.96491 h 0.35088 z"/>
		<path d="M 586.34978,232.10526 H 574.13925 L 550.77083,290 h 14.17544 l 4.2807,-11.57895 h 22.03509 L 595.54276,290 h 14.17544 z m 0.42105,34.73685 H 573.7182 L 580.17434,250 h 0.14035 z"/>
		<path d="m 630.10087,254.07018 h 0.14035 L 653.25877,290 h 13.19298 v -57.89474 h -13.19298 v 35.92983 h -0.14035 L 630.10087,232.10526 H 616.90789 V 290 h 13.19298 z"/>
		<path d="m 751.9331,290 h 13.19298 L 759.9331,232.10526 H 745.89801 L 733.0559,265.50877 720.2138,232.10526 H 706.17871 L 700.98573,290 h 13.19298 l 2.73684,-34.31579 h 0.35088 l 11.85965,33.96491 h 7.85965 l 11.85965,-33.96491 h 0.35088 z"/>
		<path d="m 808.53399,232.10526 h -33.1228 V 290 h 33.1228 v -11.57895 h -19.92982 v -11.64912 h 19.08772 v -11.57895 h -19.08772 v -11.50877 h 19.92982 z"/>
		<path d="M 834.31138,232.10526 H 821.1184 V 290 h 33.12281 v -11.57895 h -19.92983 z"/>
		<path d="m 883.83441,290 h 10.38597 l 24.2807,-57.89474 h -14.87719 l -14.5965,38.03509 -14.59649,-38.03509 h -14.87719 z"/>
		<path d="M 938.88374,232.10526 H 925.69076 V 290 h 13.19298 z"/>
		<path d="M 965.53944,232.10526 H 952.34646 V 290 h 33.12281 v -11.57895 h -19.92983 z"/>
		<path d="M 1010.1502,232.10526 H 996.95724 V 290 H 1030.08 v -11.57895 h -19.9298 z"/>
		<path d="M 1074.6908,232.10526 H 1041.568 V 290 h 33.1228 v -11.57895 h -19.9299 v -11.64912 h 19.0878 v -11.57895 h -19.0878 v -11.50877 h 19.9299 z"/>
	</g>
</svg>

<?xml version="1.0" encoding="utf-8"?>
<svg xmlns="http://www.w3.org/2000/svg" xmlns:svg="http://www.w3.org/2000/svg" version="1.1" viewBox="0 0 1400 340">
	<title>The titlepage for the Standard Ebooks edition of Moby Dick, by Herman Melville</title>
	<g>
		<path d="m 467.53728,130 17.59064,0 -6.92398,-77.192984 -18.71345,0 -17.1228,44.538013 -17.12281,-44.538013 -18.71345,0 L 399.60745,130 l 17.59064,0 3.64913,-45.754387 0.46783,0 15.81287,45.286547 10.47953,0 15.81287,-45.286547 0.46783,0 L 467.53728,130 Z"/>
		<path d="m 493.71272,91.356724 c 0,22.549706 16.09356,40.046786 38.92397,40.046786 22.17544,0 38.83041,-17.49708 38.83041,-40.046786 0,-22.549708 -17.40351,-39.953217 -38.83041,-39.953217 -21.23976,0 -38.92397,17.403509 -38.92397,39.953217 z m 18.99415,0 c 0,-11.508772 6.36257,-23.017544 19.92982,-23.017544 13.66082,0 19.83626,11.508772 19.83626,23.017544 0,11.508776 -5.80117,23.017546 -19.83626,23.017546 -14.40935,0 -19.92982,-11.50877 -19.92982,-23.017546 z"/>
		<path d="m 584.2288,52.807016 0,77.192984 29.28656,0 c 16,0 25.26315,-8.79532 25.26315,-21.52047 0,-12.444443 -6.83041,-17.777776 -16.46783,-19.461987 6.5497,-3.368421 9.63742,-9.450292 9.63742,-16.561404 0,-14.690058 -10.47953,-19.649123 -23.76608,-19.649123 l -23.95322,0 z m 17.59065,30.222223 0,-16.654971 1.40351,0 c 7.67251,0 11.6959,2.339181 11.6959,7.859649 0,6.456141 -4.11696,8.795322 -11.6959,8.795322 l -1.40351,0 z m 0,33.403511 0,-18.245616 5.52047,0 c 8.32748,0 12.91228,2.526316 12.91228,9.637426 0,6.08187 -4.5848,8.60819 -12.91228,8.60819 l -5.52047,0 z"/>
		<path d="m 640.38377,52.807016 28.44445,42.5731 0,34.619884 17.59064,0 0,-34.619884 28.44444,-42.5731 -21.14619,0 -16.09357,24.701755 -16.09357,-24.701755 -21.1462,0 z"/>
		<path d="m 753.28581,52.807016 0,77.192984 22.36258,0 c 21.23976,0 38.92397,-16.09357 38.92397,-38.643276 0,-22.45614 -17.77778,-38.549708 -38.92397,-38.549708 l -22.36258,0 z m 17.59065,61.473684 0,-45.754385 2.71345,0 c 13.09941,0 21.9883,10.011696 21.9883,22.923977 -0.0936,12.912278 -8.98246,22.830408 -21.9883,22.830408 l -2.71345,0 z"/>
		<path d="m 844.9554,52.807016 -17.59064,0 0,77.192984 17.59064,0 0,-77.192984 z"/>
		<path d="m 899.39107,114.09357 c -17.68421,0 -25.45029,-12.35088 -25.45029,-22.736846 0,-10.292397 7.76608,-22.643275 25.45029,-22.643275 8.98246,0 15.1579,4.77193 15.1579,4.77193 l 7.48538,-14.97076 c 0,0 -8.60819,-7.111112 -25.35673,-7.111112 -21.89474,0 -41.82456,17.964913 -41.82456,40.140352 0,22.081871 20.02339,39.859651 41.82456,39.859651 16.74854,0 25.35673,-7.11111 25.35673,-7.11111 l -7.48538,-14.97076 c 0,0 -6.17544,4.77193 -15.1579,4.77193 z"/>
		<path d="m 1004.125,130 -35.92982,-40.608188 31.06433,-36.584796 -21.33333,0 -26.47953,31.532164 0,-31.532164 -17.59065,0 0,77.192984 17.59065,0 0,-32.748539 L 979.89109,130 l 24.23391,0 z"/>
	</g>
	<g>
		<path d="m 339.33882,266.77193 18.66667,0 0,23.22807 13.19298,0 0,-57.89474 -13.19298,0 0,23.08772 -18.66667,0 0,-23.08772 -13.19298,0 0,57.89474 13.19298,0 0,-23.22807 z"/>
		<path d="m 417.72259,232.10526 -33.12281,0 0,57.89474 33.12281,0 0,-11.57895 -19.92983,0 0,-11.64912 19.08772,0 0,-11.57895 -19.08772,0 0,-11.50877 19.92983,0 0,-11.57895 z"/>
		<path d="m 430.30702,232.10526 0,57.89474 13.19298,0 0,-22.87719 17.68421,22.87719 16.77193,0 -19.92983,-23.92982 c 7.08772,-2.24562 11.85965,-8.07018 11.85965,-16.77193 0,-11.36842 -8.14035,-17.19299 -18.87719,-17.19299 l -20.70175,0 z m 13.19298,25.68421 0,-15.15789 1.54386,0 c 4.98245,0 10.94737,0.35088 10.94737,7.57895 0,7.22807 -5.96492,7.57894 -10.94737,7.57894 l -1.54386,0 z"/>
		<path d="m 533.46819,290 13.19299,0 -5.19299,-57.89474 -14.03508,0 -12.84211,33.40351 -12.84211,-33.40351 -14.03508,0 -5.19299,57.89474 13.19299,0 2.73684,-34.31579 0.35088,0 11.85965,33.96491 7.85964,0 11.85965,-33.96491 0.35088,0 L 533.46819,290 Z"/>
		<path d="m 586.34978,232.10526 -12.21053,0 L 550.77083,290 l 14.17544,0 4.2807,-11.57895 22.03509,0 4.2807,11.57895 14.17544,0 -23.36842,-57.89474 z m 0.42105,34.73685 -13.05263,0 6.45614,-16.84211 0.14035,0 6.45614,16.84211 z"/>
		<path d="m 630.10087,254.07018 0.14035,0 23.01755,35.92982 13.19298,0 0,-57.89474 -13.19298,0 0,35.92983 -0.14035,0 -23.01755,-35.92983 -13.19298,0 0,57.89474 13.19298,0 0,-35.92982 z"/>
		<path d="m 751.9331,290 13.19298,0 -5.19298,-57.89474 -14.03509,0 -12.84211,33.40351 -12.8421,-33.40351 -14.03509,0 -5.19298,57.89474 13.19298,0 2.73684,-34.31579 0.35088,0 11.85965,33.96491 7.85965,0 11.85965,-33.96491 0.35088,0 L 751.9331,290 Z"/>
		<path d="m 808.53399,232.10526 -33.1228,0 0,57.89474 33.1228,0 0,-11.57895 -19.92982,0 0,-11.64912 19.08772,0 0,-11.57895 -19.08772,0 0,-11.50877 19.92982,0 0,-11.57895 z"/>
		<path d="m 834.31138,232.10526 -13.19298,0 0,57.89474 33.12281,0 0,-11.57895 -19.92983,0 0,-46.31579 z"/>
		<path d="m 883.83441,290 10.38597,0 24.2807,-57.89474 -14.87719,0 -14.5965,38.03509 -14.59649,-38.03509 -14.87719,0 L 883.83441,290 Z"/>
		<path d="m 938.88374,232.10526 -13.19298,0 0,57.89474 13.19298,0 0,-57.89474 z"/>
		<path d="m 965.53944,232.10526 -13.19298,0 0,57.89474 33.12281,0 0,-11.57895 -19.92983,0 0,-46.31579 z"/>
		<path d="m 1010.1502,232.10526 -13.19296,0 0,57.89474 33.12276,0 0,-11.57895 -19.9298,0 0,-46.31579 z"/>
		<path d="m 1074.6908,232.10526 -33.1228,0 0,57.89474 33.1228,0 0,-11.57895 -19.9299,0 0,-11.64912 19.0878,0 0,-11.57895 -19.0878,0 0,-11.50877 19.9299,0 0,-11.57895 z"/>
	</g>
</svg>
